Breeze Round Light/actions/16/edit-image-face-show.svg

<svg xmlns="http://www.w3.org/2000/svg" viewBox="0 0 16 16">
  <defs id="defs3051">
<style type="text/css" id="current-color-scheme">.ColorScheme-Text {color:#fcfcfc;}</style>
  </defs>
 <path style="fill:currentColor;fill-opacity:1;stroke:none" 
     d="M 4,2 C 4,2 2,2 2,4 2,6 2,5 2,5 H 3 C 3,5 3,5 3,4 3,3 4,3 4,3 H 5 V 2 Z m 2,0 v 1 h 4 V 2 Z m 5,0 v 1 h 1 c 0,0 1,0 1,1 0,1 0,1 0,1 h 1 C 14,5 14,6 14,4 14,2 12,2 12,2 Z M 8,4 C 7.1715729,4 6.5,4.6715729 6.5,5.5 6.5,6.3284271 7.1715729,7 8,7 8.8284271,7 9.5,6.3284271 9.5,5.5 9.5,4.6715729 8.8284271,4 8,4 Z M 2,6 v 4 H 3 V 6 Z m 11,0 v 4 h 1 V 6 Z M 8,8 C 6.3431458,8 5,9.3431458 5,11 v 1 h 6 V 11 C 11,9.3431458 9.6568542,8 8,8 Z m 0,1 c 1.1045695,0 2,0.8954305 2,2 H 6 C 6,9.8954305 6.8954305,9 8,9 Z m -6,2 c 0,0 0,-1 0,1 0,2 2,2 2,2 H 5 V 13 H 4 c 0,0 -1,0 -1,-1 0,-1 0,-1 0,-1 z m 11,0 c 0,0 0,0 0,1 0,1 -1,1 -1,1 h -1 v 1 h 1 c 0,0 2,0 2,-2 0,-2 0,-1 0,-1 z m -7,2 v 1 h 4 v -1 z"
     class="ColorScheme-Text"
     />
</svg>

<svg xmlns="http://www.w3.org/2000/svg" viewBox="0 0 16 16">
  <defs id="defs3051">
    <style type="text/css" id="current-color-scheme">
      .ColorScheme-Text {
        color:#232629;
      }
      </style>
  </defs>
 <path style="fill:currentColor;fill-opacity:1;stroke:none" 
     d="M 2 2 L 2 5 L 3 5 L 3 3 L 5 3 L 5 2 L 2 2 z M 6 2 L 6 3 L 10 3 L 10 2 L 6 2 z M 11 2 L 11 3 L 13 3 L 13 5 L 14 5 L 14 2 L 11 2 z M 8 4 A 1.5 1.5 0 0 0 6.5 5.5 A 1.5 1.5 0 0 0 8 7 A 1.5 1.5 0 0 0 9.5 5.5 A 1.5 1.5 0 0 0 8 4 z M 2 6 L 2 10 L 3 10 L 3 6 L 2 6 z M 13 6 L 13 10 L 14 10 L 14 6 L 13 6 z M 8 8 A 3 3 0 0 0 5 11 L 5 12 L 11 12 L 11 11 A 3 3 0 0 0 8 8 z M 8 9 A 2 2 0 0 1 10 11 L 6 11 A 2 2 0 0 1 8 9 z M 2 11 L 2 14 L 5 14 L 5 13 L 3 13 L 3 11 L 2 11 z M 13 11 L 13 13 L 11 13 L 11 14 L 14 14 L 14 11 L 13 11 z M 6 13 L 6 14 L 10 14 L 10 13 L 6 13 z "
     class="ColorScheme-Text"
     />
</svg>
